X: 33277
T: Purple Sunrise, The
R: hornpipe
M: 4/4
K: Dminor
|:(3GFE|D>FA>d B>G (3Bcd|^c>A=c>f d2 e>f|a2 (3fga g>fe>g|f>e (3def e>^cA>F|
D2 F>d B2 G>d|^c>A=c>f d>B (3def|a>ba>g f2 (3gfe|d>BA>^c d2:|
|:(3efg|a>fd>a g>ec>e|f>e (3def ^c>A (3gfe|d2 (3edc B2 (3cBA|G>BA>G E3 F/E/|
D2 (3FAd B2 (3GBd|^c2 (3A=cf d>B (3def|a2 (3bag f>gf>e|d2 ^c2 d2:|

